public/Contact.svg

<svg width="50" height="50" viewBox="0 0 50 50" fill="none" xmlns="http://www.w3.org/2000/svg">
<g clip-path="url(#clip0_150_93)">
<path d="M21.6845 11.7389L13.8974 2.76799C12.9997 1.73422 11.3539 1.73881 10.3111 2.78178L3.90749 9.18428C2.00158 11.0887 1.45605 13.9167 2.55862 16.1841C9.14554 29.7954 20.1446 40.7882 33.7736 47.3811C36.0432 48.4815 38.8744 47.937 40.7803 46.0326L47.2438 39.5703C48.2912 38.5251 48.2935 36.8733 47.2484 35.9774L38.2253 28.2471C37.2816 27.4384 35.8153 27.5441 34.8693 28.4906L31.7296 31.6286C31.5688 31.7968 31.3572 31.9077 31.1273 31.9441C30.8973 31.9808 30.6617 31.941 30.4567 31.8308C25.3246 28.8814 21.0674 24.6272 18.119 19.5013C18.0085 19.2963 17.9684 19.0609 18.0051 18.8308C18.0416 18.601 18.1529 18.3895 18.3215 18.2286L21.452 15.1021C22.4004 14.151 22.5039 12.6807 21.6845 11.7366L21.6845 11.7389Z" stroke="#1096E1" stroke-width="4" stroke-linecap="round" stroke-linejoin="round"/>
</g>
<defs>
<clipPath id="clip0_150_93">
<rect width="50" height="50" fill="white"/>
</clipPath>
</defs>
</svg>

<svg xmlns="http://www.w3.org/2000/svg" width="50" height="50" fill="none" xmlns:v="https://vecta.io/nano"><g clip-path="url(#A)"><path d="M21.685 11.739l-7.787-8.971c-.898-1.034-2.543-1.029-3.586.014L3.907 9.184c-1.906 1.904-2.451 4.732-1.349 7 6.587 13.611 17.586 24.604 31.215 31.197 2.27 1.1 5.101.556 7.007-1.349l6.464-6.462c1.047-1.045 1.05-2.697.005-3.593l-9.023-7.73c-.944-.809-2.41-.703-3.356.244l-3.14 3.138c-.161.168-.372.279-.602.316s-.466-.003-.671-.113a33.47 33.47 0 0 1-12.338-12.329 1.06 1.06 0 0 1-.114-.671c.037-.23.148-.441.316-.602l3.131-3.126c.948-.951 1.052-2.421.232-3.366v.002z" stroke="#1096e1" stroke-width="4" stroke-linejoin="round"/></g><defs><clipPath id="A"><path fill="#fff" d="M0 0h50v50H0z"/></clipPath></defs></svg>
